assets/features/global-acquiring/paypal.svg

<svg width="200" height="200" viewBox="0 0 200 200" fill="none" xmlns="http://www.w3.org/2000/svg">
<rect width="200" height="200" rx="40" fill="#013089"/>
<path d="M77.8981 155.932L79.9781 142.722L75.3447 142.615H53.2197L68.5955 45.138C68.6412 44.8402 68.7925 44.5687 69.0218 44.3731C69.251 44.1774 69.5429 44.0707 69.8443 44.0723H107.15C119.535 44.0723 128.082 46.6491 132.544 51.7351C134.636 54.121 135.969 56.6143 136.613 59.3581C137.289 62.2371 137.301 65.6768 136.641 69.872L136.593 70.1782V72.8664L138.685 74.0514C140.282 74.8603 141.718 75.9547 142.921 77.2803C144.711 79.3203 145.868 81.913 146.357 84.9868C146.862 88.1482 146.695 91.91 145.868 96.1688C144.913 101.068 143.37 105.335 141.286 108.826C139.447 111.954 136.975 114.663 134.028 116.779C131.26 118.744 127.971 120.235 124.252 121.189C120.649 122.128 116.54 122.601 112.034 122.601H109.131C107.055 122.601 105.038 123.348 103.455 124.689C101.875 126.043 100.826 127.914 100.496 129.969L100.278 131.158L96.6027 154.441L96.4356 155.296C96.3919 155.566 96.3163 155.701 96.205 155.793C96.0971 155.881 95.9625 155.93 95.8232 155.932H77.8981Z" fill="#FEFFFF"/>
<path d="M140.666 70.4883C140.555 71.2001 140.427 71.9278 140.284 72.6754C135.364 97.9303 118.533 106.655 97.0364 106.655H86.0913C83.4623 106.655 81.2471 108.564 80.8374 111.156L75.2336 146.691L73.6467 156.763C73.5835 157.163 73.6076 157.571 73.7174 157.96C73.8273 158.35 74.0202 158.711 74.2829 159.018C74.5456 159.326 74.8718 159.573 75.2392 159.742C75.6065 159.912 76.0063 160 76.4108 160H95.8234C98.1222 160 100.075 158.33 100.437 156.063L100.628 155.077L104.283 131.886L104.517 130.613C104.875 128.339 106.832 126.669 109.131 126.669H112.034C130.842 126.669 145.566 119.034 149.869 96.9402C151.667 87.7106 150.736 80.0041 145.979 74.5841C144.472 72.9075 142.671 71.5195 140.666 70.4883Z" fill="#7590BD"/>
<path d="M135.519 68.4359C133.948 67.9816 132.35 67.627 130.734 67.3742C127.542 66.8837 124.316 66.6483 121.086 66.6704H91.8457C90.7329 66.6695 89.6565 67.0667 88.8111 67.7902C87.9657 68.5137 87.4071 69.5157 87.2362 70.6151L81.0159 110.007L80.8369 111.156C81.0307 109.902 81.667 108.759 82.6306 107.933C83.5943 107.107 84.8217 106.654 86.0908 106.654H97.0359C118.533 106.654 135.364 97.9259 140.284 72.6749C140.431 71.9273 140.554 71.1996 140.665 70.4878C139.367 69.8072 138.014 69.2365 136.621 68.7819C136.255 68.6607 135.888 68.5454 135.519 68.4359Z" fill="#AFC2D9"/>
<path d="M87.2361 70.6153C87.4056 69.5156 87.9639 68.5131 88.8098 67.79C89.6556 67.0669 90.7328 66.6711 91.8457 66.6746H121.086C124.55 66.6746 127.783 66.9012 130.734 67.3784C132.731 67.6922 134.701 68.1616 136.625 68.7821C138.076 69.2633 139.425 69.8319 140.669 70.4881C142.133 61.1552 140.657 54.8007 135.61 49.0466C130.046 42.712 120.004 40 107.154 40H69.848C67.223 40 64.9839 41.9087 64.5782 44.5054L49.0394 142.984C48.967 143.441 48.9946 143.909 49.1201 144.354C49.2457 144.8 49.4663 145.213 49.7667 145.565C50.0672 145.917 50.4404 146.2 50.8607 146.395C51.2809 146.589 51.7383 146.69 52.2013 146.69H75.233L81.0159 110.007L87.2361 70.6153Z" fill="#FEFFFF"/>
</svg>

<svg xmlns="http://www.w3.org/2000/svg" width="200" height="200" fill="none" viewBox="0 0 200 200"><rect width="200" height="200" fill="#013089" rx="40"/><path fill="#feffff" d="m77.898 155.932 2.08-13.21-4.633-.107H53.22l15.376-97.477a1.256 1.256 0 0 1 1.248-1.066h37.306c12.385 0 20.932 2.577 25.394 7.663 2.092 2.386 3.425 4.88 4.069 7.623.676 2.88.688 6.319.028 10.514l-.048.306v2.688l2.092 1.185a14.7 14.7 0 0 1 4.236 3.23c1.79 2.04 2.947 4.632 3.436 7.706.505 3.161.338 6.923-.489 11.182-.955 4.899-2.498 9.166-4.582 12.657a26 26 0 0 1-7.258 7.953c-2.768 1.965-6.057 3.456-9.776 4.41-3.603.939-7.712 1.412-12.218 1.412h-2.903a8.8 8.8 0 0 0-5.676 2.088 8.8 8.8 0 0 0-2.959 5.28l-.218 1.189-3.675 23.283-.167.855c-.044.27-.12.405-.231.497a.62.62 0 0 1-.382.139z"/><path fill="#7590bd" d="M140.666 70.488q-.167 1.067-.382 2.187c-4.92 25.255-21.751 33.98-43.248 33.98H86.091a5.315 5.315 0 0 0-5.254 4.501l-5.603 35.535-1.587 10.072A2.797 2.797 0 0 0 76.41 160h19.412a4.67 4.67 0 0 0 4.614-3.937l.191-.986 3.655-23.191.234-1.273a4.67 4.67 0 0 1 4.614-3.944h2.903c18.808 0 33.532-7.635 37.835-29.729 1.798-9.23.867-16.936-3.89-22.356a18.6 18.6 0 0 0-5.313-4.096"/><path fill="#afc2d9" d="M135.519 68.436a39 39 0 0 0-4.785-1.062 61 61 0 0 0-9.648-.704h-29.24a4.66 4.66 0 0 0-4.61 3.945l-6.22 39.392-.18 1.149a5.314 5.314 0 0 1 5.255-4.502h10.945c21.497 0 38.328-8.728 43.248-33.98.147-.747.27-1.474.381-2.186a26 26 0 0 0-4.044-1.706 37 37 0 0 0-1.102-.346"/><path fill="#feffff" d="M87.236 70.615a4.65 4.65 0 0 1 4.61-3.94h29.24c3.464 0 6.697.226 9.648.703a39 39 0 0 1 5.891 1.404q2.177.722 4.044 1.706c1.464-9.333-.012-15.687-5.059-21.441C130.046 42.712 120.004 40 107.154 40H69.848a5.33 5.33 0 0 0-5.27 4.505L49.04 142.984a3.204 3.204 0 0 0 3.162 3.706h23.032l5.783-36.683z"/></svg>
